img/i/network.svg

<svg enable-background="new 0 0 512 512" viewBox="0 0 512 512" xmlns="http://www.w3.org/2000/svg"><circle cx="255.999" cy="55.31" fill="#4c5870" r="36.118"/><path d="m256 126.923c-41.27 0-74.726 33.456-74.726 74.726h149.452c0-41.27-33.456-74.726-74.726-74.726z" fill="#4c5870"/><circle cx="87.18" cy="347.712" fill="#181818" r="38.471"/><path d="m87.18 419.326c-41.27 0-74.726 33.456-74.726 74.726h149.452c0-41.27-33.456-74.726-74.726-74.726z" fill="#181818"/><circle cx="424.817" cy="347.712" fill="#269af2" r="38.471"/><path d="m424.818 419.326c-41.27 0-74.726 33.456-74.726 74.726h149.452c0-41.27-33.456-74.726-74.726-74.726z" fill="#269af2"/><g fill="#11113f"><path d="m256 105.128c27.469 0 49.817-22.348 49.817-49.817s-22.348-49.817-49.817-49.817-49.817 22.348-49.817 49.817 22.348 49.817 49.817 49.817zm0-74.726c13.735 0 24.909 11.174 24.909 24.909s-11.174 24.909-24.909 24.909-24.909-11.174-24.909-24.909 11.173-24.909 24.909-24.909z"/><path d="m181.274 214.104c6.877 0 12.454-5.576 12.454-12.454 0-34.337 27.935-62.272 62.272-62.272s62.272 27.935 62.272 62.272c0 6.879 5.577 12.454 12.454 12.454s12.454-5.576 12.454-12.454c0-48.071-39.109-87.18-87.18-87.18s-87.18 39.109-87.18 87.18c0 6.878 5.576 12.454 12.454 12.454z"/><path d="m87.18 397.531c27.469 0 49.817-22.348 49.817-49.817s-22.348-49.817-49.817-49.817-49.817 22.348-49.817 49.817 22.349 49.817 49.817 49.817zm0-74.726c13.735 0 24.909 11.174 24.909 24.909s-11.174 24.909-24.909 24.909-24.909-11.174-24.909-24.909 11.175-24.909 24.909-24.909z"/><path d="m87.18 406.872c-48.071 0-87.18 39.109-87.18 87.18 0 6.879 5.577 12.454 12.454 12.454s12.454-5.576 12.454-12.454c0-34.337 27.935-62.272 62.272-62.272s62.272 27.935 62.272 62.272c0 6.879 5.577 12.454 12.454 12.454s12.454-5.576 12.454-12.454c.001-48.071-39.108-87.18-87.18-87.18z"/><path d="m424.818 397.531c27.469 0 49.817-22.348 49.817-49.817s-22.348-49.817-49.817-49.817-49.817 22.348-49.817 49.817 22.349 49.817 49.817 49.817zm0-74.726c13.735 0 24.909 11.174 24.909 24.909s-11.174 24.909-24.909 24.909-24.909-11.174-24.909-24.909 11.175-24.909 24.909-24.909z"/><path d="m424.82 406.872c-48.071 0-87.18 39.109-87.18 87.18 0 6.879 5.577 12.454 12.454 12.454s12.454-5.576 12.454-12.454c0-34.337 27.935-62.272 62.272-62.272s62.272 27.935 62.272 62.272c0 6.879 5.577 12.454 12.454 12.454s12.454-5.575 12.454-12.454c0-48.071-39.11-87.18-87.18-87.18z"/><path d="m333.412 340.802-64.958-37.504v-75.009c0-6.879-5.577-12.454-12.454-12.454s-12.454 5.576-12.454 12.454v75.009l-64.958 37.504c-5.957 3.439-7.998 11.056-4.558 17.013s11.058 7.998 17.013 4.558l64.957-37.504 64.958 37.504c1.962 1.132 4.102 1.67 6.215 1.67 4.304 0 8.491-2.233 10.798-6.228 3.44-5.958 1.398-13.575-4.559-17.013z"/></g></svg>

<?xml version="1.0" encoding="iso-8859-1"?>
<!-- Generator: Adobe Illustrator 19.0.0, SVG Export Plug-In . SVG Version: 6.00 Build 0)  -->
<svg version="1.1" id="Layer_1" xmlns="http://www.w3.org/2000/svg" xmlns:xlink="http://www.w3.org/1999/xlink" x="0px" y="0px"
	 viewBox="0 0 512 512" style="enable-background:new 0 0 512 512;" xml:space="preserve">
<g>
	<circle style="fill:#4C5870;" cx="255.999" cy="55.31" r="36.118"/>
	<path style="fill:#4C5870;" d="M256,126.923c-41.27,0-74.726,33.456-74.726,74.726h149.452
		C330.726,160.379,297.27,126.923,256,126.923z"/>
</g>
<g>
	<circle style="fill:#181818;" cx="87.18" cy="347.712" r="38.471"/>
	<path style="fill:#181818;" d="M87.18,419.326c-41.27,0-74.726,33.456-74.726,74.726h149.452
		C161.906,452.782,128.45,419.326,87.18,419.326z"/>
</g>
<g>
	<circle style="fill:#269AF2;" cx="424.817" cy="347.712" r="38.471"/>
	<path style="fill:#269AF2;" d="M424.818,419.326c-41.27,0-74.726,33.456-74.726,74.726h149.452
		C499.544,452.782,466.088,419.326,424.818,419.326z"/>
</g>
<g>
	<path style="fill:#11113F;" d="M256,105.128c27.469,0,49.817-22.348,49.817-49.817S283.469,5.494,256,5.494
		s-49.817,22.348-49.817,49.817S228.531,105.128,256,105.128z M256,30.402c13.735,0,24.909,11.174,24.909,24.909
		S269.735,80.22,256,80.22c-13.735,0-24.909-11.174-24.909-24.909S242.264,30.402,256,30.402z"/>
	<path style="fill:#11113F;" d="M181.274,214.104c6.877,0,12.454-5.576,12.454-12.454c0-34.337,27.935-62.272,62.272-62.272
		s62.272,27.935,62.272,62.272c0,6.879,5.577,12.454,12.454,12.454c6.877,0,12.454-5.576,12.454-12.454
		c0-48.071-39.109-87.18-87.18-87.18s-87.18,39.109-87.18,87.18C168.82,208.528,174.396,214.104,181.274,214.104z"/>
	<path style="fill:#11113F;" d="M87.18,397.531c27.469,0,49.817-22.348,49.817-49.817s-22.348-49.817-49.817-49.817
		s-49.817,22.348-49.817,49.817S59.712,397.531,87.18,397.531z M87.18,322.805c13.735,0,24.909,11.174,24.909,24.909
		s-11.174,24.909-24.909,24.909s-24.909-11.174-24.909-24.909S73.446,322.805,87.18,322.805z"/>
	<path style="fill:#11113F;" d="M87.18,406.872c-48.071,0-87.18,39.109-87.18,87.18c0,6.879,5.577,12.454,12.454,12.454
		s12.454-5.576,12.454-12.454c0-34.337,27.935-62.272,62.272-62.272s62.272,27.935,62.272,62.272
		c0,6.879,5.577,12.454,12.454,12.454c6.877,0,12.454-5.576,12.454-12.454C174.361,445.981,135.252,406.872,87.18,406.872z"/>
	<path style="fill:#11113F;" d="M424.818,397.531c27.469,0,49.817-22.348,49.817-49.817s-22.348-49.817-49.817-49.817
		s-49.817,22.348-49.817,49.817S397.35,397.531,424.818,397.531z M424.818,322.805c13.735,0,24.909,11.174,24.909,24.909
		s-11.174,24.909-24.909,24.909s-24.909-11.174-24.909-24.909S411.084,322.805,424.818,322.805z"/>
	<path style="fill:#11113F;" d="M424.82,406.872c-48.071,0-87.18,39.109-87.18,87.18c0,6.879,5.577,12.454,12.454,12.454
		s12.454-5.576,12.454-12.454c0-34.337,27.935-62.272,62.272-62.272s62.272,27.935,62.272,62.272
		c0,6.879,5.577,12.454,12.454,12.454S512,500.931,512,494.052C512,445.981,472.89,406.872,424.82,406.872z"/>
	<path style="fill:#11113F;" d="M333.412,340.802l-64.958-37.504v-75.009c0-6.879-5.577-12.454-12.454-12.454
		s-12.454,5.576-12.454,12.454v75.009l-64.958,37.504c-5.957,3.439-7.998,11.056-4.558,17.013c3.44,5.957,11.058,7.998,17.013,4.558
		L256,324.869l64.958,37.504c1.962,1.132,4.102,1.67,6.215,1.67c4.304,0,8.491-2.233,10.798-6.228
		C341.411,351.857,339.369,344.24,333.412,340.802z"/>
</g>
<g>
</g>
<g>
</g>
<g>
</g>
<g>
</g>
<g>
</g>
<g>
</g>
<g>
</g>
<g>
</g>
<g>
</g>
<g>
</g>
<g>
</g>
<g>
</g>
<g>
</g>
<g>
</g>
<g>
</g>
</svg>
